X:609
T:Skipping Through the Daisies.
R:air
Z:Collected from J. O'Neill
T:ag-foileacd tri na noinini.b.
Z:Tempo:Playfully
M:6/8
Q:100
K:Ddor
d|f2d e2c|edcB A2G|FAd f2d|eaz z2 A|
f2d fe2c|edcB A2G|FAd age|ed z z2||
d|A2 F A2d|BG z z2 e|c2A c2e|gf z z2 d|
A2F Adf|aHg z z2 g|fed e2a|fd z z2||
